lib/preview/nrk-logo-preview-nrk-p3.svg

<svg width="59" height="14" viewBox="0 0 59 14" fill="none" xmlns="http://www.w3.org/2000/svg">
<path d="M46.3332 1.01056H42.632C42.632 1.01056 44.7352 4.46312 44.7589 4.50657C44.8381 4.60641 44.8824 4.72953 44.8849 4.85698C44.8874 4.98444 44.848 5.10918 44.7727 5.21204L42.632 8.72105H46.3338C46.3338 8.72105 48.1189 5.80211 48.3629 5.39688C48.4788 5.24165 48.5405 5.05272 48.5387 4.85905C48.5369 4.66538 48.4717 4.47764 48.3531 4.32456C48.0898 3.87616 48.0892 3.87646 46.3332 1.01056Z" fill="white"/>
<path d="M42.1537 1.0106H38.8572V13.0039H42.1537V1.0106Z" fill="white"/>
<path d="M57.9266 2.99745C57.8021 2.78524 56.7005 1.01056 56.7005 1.01056H48.7778L50.5084 3.91342H54.6814L52.9601 6.73529L54.879 9.95928L53.027 13.003H56.4093C56.953 12.1135 57.766 10.7376 57.9359 10.4557C58.0524 10.2999 58.1145 10.1101 58.1127 9.91557C58.1109 9.72104 58.0454 9.53247 57.926 9.37882C57.7567 9.08986 56.8509 7.65326 56.3096 6.76888C56.3096 6.76888 57.766 4.35561 57.9359 4.0737C58.0523 3.918 58.1145 3.72842 58.1128 3.53401C58.1111 3.33959 58.0457 3.1511 57.9266 2.99745Z" fill="white"/>
<path d="M50.3058 7.125C49.7843 7.97664 48.9124 9.40395 48.749 9.68219C48.634 9.83017 48.5708 10.0118 48.5691 10.1992C48.5673 10.3866 48.6272 10.5694 48.7394 10.7195C48.9031 10.991 49.7818 12.4296 50.3058 13.2874C50.8296 12.4304 51.7086 10.9918 51.872 10.7195C51.9842 10.5694 52.044 10.3866 52.0423 10.1993C52.0406 10.0119 51.9775 9.83025 51.8627 9.68219C51.6993 9.40395 50.827 7.97664 50.3058 7.125Z" fill="white"/>
<path d="M6.10352e-05 13.0056V1.00671H3.93725V13.0056H6.10352e-05ZM9.29387 2.91639L11.5581 13.0056H7.24923L4.54555 1.00671H6.96224C7.51641 0.999513 8.05412 1.19486 8.47456 1.556C8.89568 1.902 9.18501 2.38231 9.29387 2.91639ZM12.1496 13.0056V1.00671H16.0868V13.0056H12.1496ZM19.0605 5.56972C18.6363 5.57385 18.2188 5.46285 17.8526 5.24858C17.4913 5.03974 17.1912 4.73957 16.9823 4.37821C16.7678 4.01195 16.6568 3.59438 16.661 3.16993C16.6562 2.74808 16.7673 2.33299 16.9823 1.97004C17.1934 1.61261 17.4932 1.31571 17.8526 1.10813C18.2189 0.894118 18.6363 0.78313 19.0605 0.786999C19.4823 0.782457 19.8972 0.893544 20.2603 1.10813C20.6161 1.31753 20.9127 1.61418 21.1221 1.97004C21.3369 2.3331 21.448 2.74811 21.4434 3.16993C21.4473 3.59434 21.3363 4.01184 21.1221 4.37821C20.9149 4.73799 20.618 5.0379 20.2603 5.24858C19.8972 5.46359 19.4819 5.57471 19.06 5.56972H19.0605ZM22.0517 13.0056V1.00671H25.9892V13.0056H22.0517ZM30.9738 7.56385C30.9849 7.57549 31.0693 7.7135 31.2272 7.97789C31.3851 8.24228 31.5907 8.5803 31.844 8.9919C32.0975 9.40332 32.3649 9.83987 32.6464 10.3016C32.9278 10.7634 33.1927 11.2 33.4409 11.6114C33.6882 12.0228 33.9698 12.4875 34.2858 13.0056H29.9599C29.6893 12.5662 29.4442 12.1691 29.2245 11.8142C29.0049 11.4593 28.7714 11.0762 28.5239 10.665C28.2759 10.2541 28.0307 9.85415 27.7883 9.46508C27.5459 9.07601 27.3376 8.73523 27.1633 8.44267C26.9883 8.14993 26.8671 7.95274 26.7997 7.85115C26.6326 7.59906 26.5337 7.30791 26.5127 7.00616C26.5295 6.71655 26.6227 6.43659 26.7828 6.19473C26.8504 6.08206 26.9743 5.88204 27.1546 5.59475C27.3348 5.30745 27.5461 4.96667 27.7883 4.57234C28.0305 4.17801 28.2757 3.77522 28.5239 3.36399C28.7721 2.95276 29.0056 2.56685 29.2245 2.20632C29.4446 1.84617 29.6897 1.4462 29.9599 1.00643H34.2858L30.9397 6.46511C30.8361 6.62718 30.7778 6.81396 30.7707 7.00616C30.7818 7.20794 30.8523 7.40193 30.9732 7.56385H30.9738Z" fill="white"/>
</svg>

<svg xmlns="http://www.w3.org/2000/svg" viewBox="0 0 59 14"><path fill="#fff" d="M46.333 1.01h-3.701s2.103 3.453 2.127 3.497a.582.582 0 0 1 .014.705l-2.141 3.51h3.702s1.785-2.92 2.029-3.325a.885.885 0 0 0-.01-1.072c-.263-.449-.264-.449-2.02-3.314ZM42.154 1.01h-3.297v11.994h3.297V1.01ZM57.927 2.997A328.772 328.772 0 0 0 56.7 1.011h-7.922l1.73 2.902h4.173l-1.72 2.822 1.918 3.224-1.852 3.044h3.382c.544-.89 1.357-2.265 1.527-2.547a.888.888 0 0 0-.01-1.077c-.17-.29-1.075-1.726-1.616-2.61l1.626-2.695a.888.888 0 0 0-.01-1.077Z"/><path fill="#fff" d="M50.306 7.125a376.74 376.74 0 0 0-1.557 2.557.855.855 0 0 0-.01 1.037c.164.272 1.043 1.71 1.567 2.568a906.39 906.39 0 0 0 1.566-2.568.856.856 0 0 0-.01-1.037 390.735 390.735 0 0 0-1.556-2.557ZM0 13.006v-12h3.937v12H0Zm9.294-10.09 2.264 10.09H7.25l-2.703-12h2.416a2.276 2.276 0 0 1 1.513.55c.42.346.71.826.819 1.36Zm2.856 10.09v-12h3.937v12H12.15Zm6.91-7.436a2.383 2.383 0 0 1-2.4-2.4 2.303 2.303 0 0 1 .322-1.2 2.412 2.412 0 0 1 3.278-.862c.356.21.653.506.862.862.215.363.326.778.321 1.2a2.4 2.4 0 0 1-1.183 2.079 2.303 2.303 0 0 1-1.2.32Zm2.992 7.436v-12h3.937v12h-3.937Zm8.922-5.442c.01.011.095.15.253.414s.364.602.617 1.014a326.442 326.442 0 0 1 1.597 2.62c.247.41.529.876.845 1.394H29.96c-.27-.44-.516-.837-.736-1.192-.22-.355-.453-.738-.7-1.149-.248-.41-.493-.81-.736-1.2-.242-.389-.45-.73-.625-1.022-.175-.293-.296-.49-.363-.592a1.75 1.75 0 0 1-.287-.845c.016-.29.11-.57.27-.811.067-.113.191-.313.372-.6a182.106 182.106 0 0 0 1.37-2.23c.247-.412.48-.798.7-1.159l.735-1.2h4.326l-3.346 5.46a1.078 1.078 0 0 0-.17.54c.012.202.082.396.203.558Z"/></svg>
